!!!COM: Krebs
!!!LAR: Arban, Jean-Baptiste
!!!OTL: Loving, I Think of Thee
!!!OPR: The Art of Phrasing: 150 Classic and Popular Melodies
!!!ONM: No. 002
!!!OMD: Andante
**kern	**dynam
*ITromp	*
*ITrd1c2	*
*clefG2	*
*B-:	*
*k[b-e-]	*
*M4/4	*
*met(c)	*
=1	=1
!!LO:TX:i:b:t=dolce	
(4f	p
8.g)L	.
16aJ	.
(4.b-	.
8a)	.
=2	=2
(2a	.
4g)	.
4r	.
=3	=3
8r	.
(8e-L	.
8d	.
8e-)J	.
(4.g	.
8f)	.
=4	=4
(2f	.
4b-)	.
4r	.
=5	=5
(4b-	.
8.aL	.
16b-)J	.
4dd	.
4dd	.
=6	=6
(2d	.
2b-)	.
=7	=7
8r	.
(8aL	.
8g#	.
8aJ	.
8ccL	.
8b	.
8b-	.
8g)J	.
=8	=8
[2f	.
8f]	.
8r	.
4r	.
==9|:	==9|:
(4f	mf
8.aL	.
16b-J)	.
(4cc	.
4dd)	.
=10	=10
(2b-	.
4f)	.
4r	.
=11	=11
(4f	<
8.aL	(
16b-)J	[
(4cc$	.
8.ee-L	.
16dd)J	.
=12	=12
(2b-	.
[4f	>
8.f])L,	)
16gJ	]
=13	=13
(4a-	p
16b-QL	.
16a-QJ	.
8gL	.
8a-)J	.
(4.cc	.
8b-)	.
=14	=14
[2g	.
4g]	.
8r	.
8g	.
=15	=15
8fL	mf
(8b-	<
8a	(
8b-)J	[
(4.dd	>
8cc)	]
=16	=16
[2b-	.
8b-]	.
8r	.
4r	.
=:|!	=:!
*-	*-
!!!OCL: Edwin Franko Goldman
!!!OCL: Walter M. Smith
!!!OCL: Claude Gordon
!!!YOR: Arban's Complete Conservatory Method for Trumpet/Cornet
!!!PPR: Carl Fischer
!!!PPP: New York, NY
!!!PDT: 1893///
!!!reprint: Carl Fischer, 1982: ISBN 0-8258-0385-3
!!!EFL: 2/150
!!!ENC: Hubert Léveillé Gauvin
!!!END: 2018/05/09/